X:1
T:Neun ausgewählte Volkslieder
T:Das Lieben bringt groß Freud
T:Satz von Max Reger
T:Volkslied
T:Das Lieben bringt groß Freud
T:Creative Commons Attribution Non Commercial 3.0
T:Creative Commons Attribution Non Commercial 3.0
T:Creative Commons Attribution Non Commercial 3.0
T:Creative Commons Attribution Non Commercial 3.0
T:Creative Commons Attribution Non Commercial 3.0
T:Creative Commons Attribution Non Commercial 3.0
C:Max Reger
Z:Creative Commons Attribution Non Commercial 3.0
%%score [ 1 2 3 4 ]
L:1/8
Q:1/4=120
M:4/4
K:Bb
V:1 treble-8 nm="Tenor\n1"
V:2 treble-8 nm="Tenor\n2"
V:3 bass nm="Bass\n1"
V:4 bass nm="Bass\n2"
V:1
"^Con moto"!mf! F2 |!<(! B3 c!<)! d2 e2 |!>(! f4!>)! z2!p!!<(! Bd | f2!<)! f2 e2!>(! e2!>)! | %4
w: 1.~Das|Lie- ben bringt groß'|Freud', es _|wis- sen's al- le|
 d4 z2 |!f! B2 |!<(! d2 f2!<)! f2 g2 | f3 e e2"^più"!p! fe |!<(! d2 d2!<)! d2 f2 | %9
w: Leut';|weiß|mir ein schwarz- braun|Mäg- de- lein, mit _|zwei schwarz- brau- nen|
!>(! d2 cB!>)! c2 |!mf! Bc |!<(! d6!<)!!f! eg | f6 Bd |!>(! f2 f2 e2 e2!>)! |!p! d4 z2 ||!mf! F2 | %16
w: Äu- ge- * lein,|das _|mir, das _|mir, das _|mir mein Herz er-|freut.|2.~Sie|
!<(! B3"^schwarz-" c!<)! d2 e2 |!>(! f4!>)! z2!f!!<(! Bd | f2 f2!<)! e2 e2 |!p!!>(! d4!>)! z2 | %20
w: hat * brau- ne|Haar! da- *|zu zwei Äug- lein|klar;|
!f!!<(! B2 | d2!<)! f2 f2 g2 | f3 e e2 fe | d2 d2 d2!>(! f2 | d2 cB!>)!!p! c2 | Bc | %26
w: ihr|sanf- ter Blick, ihr|Zu- cker- mund hat *|mir das Herz im|Leib ver- * wund't,|hat *|
!<(! d6!<)!!f! eg | f6 Bd | f2!>(! f2 e2 e2!>)! |!p! d4 z2 ||!p! F2 |!<(! B3 c!<)! d2 e2 | %32
w: mir, hat *|mir, hat *|mir mein Herz ver-|wund't.|3.~Ein|Brief- lein schrieb sie|
 f4 z2!mf!!<(! Bd | f2 f2!<)! e2!>(! e2!>)! | d4 z2 |!p!!<(! B2 | d2 f2!<)! f2 g2 | %37
w: mir, ich _|soll treu blei- ben|ihr,|d'rauf|schickt ich ihr ein|
"^cresc." f3 e e2!f! fe | d2 d2 d2 f2 |!>(! d2 cB!>)!!p! c2 | Bc |"^poco a poco cresc." d6 eg | %42
w: Sträu- ße- lein von *|Ros- ma- rin und|Nä- ge- * lein,|sie _|soll, sie _|
 f6 Bd | f2!f! f2 e2!>(! e2 | d4!>)! z2 ||!f!!<(! F2 | B3 c d2!<)! e2 | f4 z2"^kein'm" Bd | %48
w: soll, sie _|soll mein ei- gen|sein.|4.~Mein|ei- gen soll sie|sein, kein'm _|
!ff! f2 f2 e2 e2 |!>(! d4!>)! z2 |!p! B2 |!<(! d2 f2 f2 g2!<)! | f3 e e2!f! fe | %53
w: An- d'ren mehr als|mein.|So|le- ben wir in|Freud' und Leid, bis _|
!<(! d2 d2 d2 f2!<)! | d2 cB c2 |!p!!<(! Bc!<)! | d6 eg | f6 Bd | %58
w: Gott uns von- ein-|an- der * scheid't,|dann *|Schatz, leb' *|wohl dann *|
[Q:1/4=120]"^rit."!pp!!>(! f2 f2 e2 e2!>)! |!ppp! !fermata!d4 z2 |] %60
w: Schatz, leb' e- wig|wohl!|
V:2
!mf! F2 |!<(! F3 A!<)! B2 B2 |!>(! (B2 A2!>)! B2)!p!!<(! B2 | B2!<)! =B2 c2!>(! A2!>)! | B4 z2 | %5
w: |||||
!f! B2 |!<(! B2 BA!<)! B2 Bc | d3 c c2!p!"^più" dc |!<(! B2 Bc!<)! B2 B2 |!>(! B2 AG!>)! A2 | %10
w: |||||
!mf! GA |!<(! B2 B2 F2!<)!!f! Bc | (d2 A2 B2) B2 |!>(! d2 B2 B2 A2!>)! |!p! F4 z2 ||!mf! F2 | %16
w: |* das mir, * *|||||
!<(! F3 A!<)! B2 B2 |!>(! B4!>)! z2!f!!<(! B2 | d2 d2!<)! c2 c2 |!>(! (c2!p! B2)!>)! z2 | %20
w: ||||
!f!!<(! FG | B2!<)! FA B2 GA | A3 A AG F2 | F2 F2 F2!>(! FA | F2 F2!>)!!p! F2 | BA | %26
w: ||||||
!<(! B2 F2!<)! F^F!f! GE | F6 GB | B2!>(! d2 c2 c2!>)! |!p! B4 z2 ||!p! F2 |!<(! F3 F!<)! F2 B2 | %32
w: * hat mir, _ _ _|_ _ _||||* * schrieb sie,|
 A2 B2 c2!mf!!<(! B_A | _A2 G2!<)! G_G!>(! F2!>)! | F4 z2 |!p!!<(! B2 | B2 A2!<)! Bc =Bd | %37
w: schrieb sie mir, * *|||||
"^cresc." d3 c c2!f! c2 | c2 BA B2 d2 |!>(! B2 AG!>)!!p! A2 | GA | %41
w: ||||
"^poco a poco cresc." B2 c2 =B2 c=A | B2 F2 F^F GB | d2!f! =B2 c_B!>(! A2 | B4!>)! z2 || %45
w: * sie soll, * *|* sie soll, _ _ _|_ _ _ _ _||
!f!!<(! F2 | F3 A B2!<)! B2 | B4 z2 B2 |!ff! B3 =B c2 c2 |!>(! (B2 AG!>)! ^F2) |!p! G2 | %51
w: ||||||
!<(! =Fd ce dc =B_B!<)! | _A3 G G_G!f! F2 |!<(! F2 F2 B2 B2!<)! | B2 AB AG |!p!!<(! FA!<)! | %56
w: |||||
 B2 A2 B2 cA | B2!>(! c2 dc B2!>)! |!pp!!>(! d2 d2 c2 c2!>)! |!ppp! !fermata!B4 z2 |] %60
w: * leb' wohl, dann *|Schatz, leb' wohl, * *|||
V:3
!mf! F,2 |!<(! D,3 E,!<)! F,2 G,2 |!>(! (F,2 E,2!>)! F,2)!p!!<(! F,2 | %3
w: 1.~Das|Lie- ben bringt groß'|Freud', _ _ es|
 G,2!<)! ^G,2 A,2!>(! F,2!>)! | F,4 z2 |!f! B,2 |!<(! B,2 F,2!<)! F,2 E,G, | %7
w: wis- sen's al- le|Leut';|weiß|mir ein schwarz- braun *|
 A,2 A,2 A,2!p!"^più" F,2 |!<(! F,B, A,2!<)! G,_G, F,2 |!>(! F,2 F,2!>)! F,2 |!mf! F,E, | %11
w: Mäg- de- lein, mit|zwei * schwarz- brau- * nen|Äu- ge- lein,|das _|
 F,2!<(! B,C B,A,!<)!!f! G,A, | B,2 E,2 F,^F, G,2 |!>(! B,2 D2 C2 C2!>)! |!p! B,4 z2 ||!mf! F,E, | %16
w: mir mein * Herz, * das _|mir mein Herz, _ das|mir mein Herz er-|freut.|2.~Sie _|
!<(! D,3"^schwarz-" F,!<)! F,2 F,2 |!>(! F,4!>)! (B,_A,!f!!<(! G,2) | =A,2 _A,2!<)! G,2 _G,2 | %19
w: hat * brau- ne|Haar! da- * *|zu zwei Äug- lein|
!p!!>(! (F,3 =G,!>)! F,E,) |!f!!<(! D,E, | F,B,!<)! B,C D2 B,C | D3 C CB, A,2 | %23
w: klar; _ _ _|ihr *|sanf- * ter * Blick, ihr *|Zu- cker- mund * hat|
 B,A, B,C B,A,!>(! B,C | B,2 A,G, A,!>)!!p!G, | F,E, |!<(! F,2 B,C!<)! DC!f! B,2 | %27
w: mir * das * Herz * im *|Leib ver- * wund't, *|hat *|mir, hat * mir, _ hat|
 B,C DC B,A, G,_G, | F,G,!>(! _A,2 G,2 F,2!>)! |!p! F,4 z2 ||!p! F,E, |!<(! D,3 F,!<)! B,2 E,2 | %32
w: mir, * hat * mir, * hat *|mir * mein Herz ver-|wund't.|3.~Ein *|Brief- lein schrieb sie|
 (C,3 _D,)!mf!!<(! C,E,=D,F, | D!<)!C =B,2 C_B,!>(! A,2!>)! | B,4 z2 |!p!!<(! G,F, | %36
w: mir, _ ich _ _ _|soll * treu blei- * ben|ihr,|d'rauf *|
 F,2 E,2!<)! D,2 D,F, |"^cresc." _A,3 G, G,_G,!f! F,2 | F,2 F,2 F,2 B,2 |!>(! F,2 F,2!>)!!p! F,2 | %40
w: schickt ich ihr ein *|Sträu- ße- lein _ von|Ros- ma- rin und|Nä- ge- lein,|
 F,E, |"^poco a poco cresc." F,2 ^F,2 G,2 G,C | D2 A,2 B,2 G,2 | B,2!f! _A,2 G,2!>(! F,2 | %44
w: sie _|soll, sie soll, sie _|soll, sie soll, sie|soll mein ei- gen|
 F,4!>)! z2 ||!f!!<(! F,2 | F,2 E,2 F,2!<)! G,2 | F,2!ff! DC B,A, G,_G, |!ff! F,=G, F,2 G,2 G,_G, | %49
w: sein.|4.~Mein|ei- gen soll sie|sein, soll sie sein, _ _ _|An- * d'ren mehr als _|
!>(! (F,2 E,2!>)! D,2) |!p! G,B, |!<(! B,2 C2 D2 D_D!<)! | C2 D2 C2!f! DC | %53
w: mein. _ _|So *|le- ben wir in *|Freud' und Leid, bis _|
!<(! B,2 B,2 B,2 F,2!<)! | F,2 F,G, A,2 |!p!!<(! B,F, | F,2!<)! E,2 F,2 G,E, | %57
w: Gott uns von- ein-|an- der * scheid't,|dann *|Schatz, leb' wohl, dann *|
 F,2!>(! G,A, B,_A, G,2!>)! |!pp! =A,2 _A,2 G,_G, F,2 |!ppp! !fermata!F,4 z2 |] %60
w: Schatz, leb' * wohl, * dann|Schatz, leb' e- * wig|wohl!|
V:4
!mf! F,2 |!<(! B,,3 F,,!<)! B,,2 E,2 |!>(! (D,2 C,2!>)! D,2)!p!!<(! D,2 | C,2!<)! C,2 F,2!>(! C,2 | %4
w: ||||
 B,,2!>)!!f! B,2 A,2 | G,2 |"^schwarz   -"!<(! (F,E, D,2)!<)! (D,2 E,2) | %7
w: Leut'; weiß mir|ein|* * * braun _|
 F,2 F,2 F,2!p!"^più" A,,2 |!<(! B,,2 B,,2!<)! B,,2 D,E, |!>(! F,2 F,2!>)! F,E, |!mf! D,C, | %11
w: Mäg- de- lein, *||||
 B,,2!<(! G,2 F,2!<)!!f! E,2 | D,2 C,2 D,2 E,2 |!>(! F,2 F,2 F,2 F,2!>)! |!p! B,,4 z2 || z2 | %16
w: |||||
 z2!mf!!<(! F,,2 B,,2!<)! C,2 |!>(! D,2 C,B,,!>)! D,2!f!!<(! E,=E, | F,2 =B,,2!<)! C,2 =A,,2 | %19
w: 2.~Sie hat schwarz-|brau- ne * Haar! da- *|zu zwei Äug- lein|
!p!!>(! B,,4!>)! z2 |!f!!<(! B,,2 | B,,2!<)! D,C, B,,2 E,2 | F,3 F, F,2 C,2 | %23
w: klar;||||
 B,,2 B,,A,, B,,C,!>(! D,E, | F,2 F,2 F,!>)!!p!E, | D,C, |!<(! B,,2 D,E,!<)! F,B,,!f! E,2 | %27
w: ||||
 D,A,, B,,C, D,2 E,2 | D,2!>(! C,=B,, C,_B,, =A,,2!>)! |!p! B,,4 z2 ||!p! F,,2 | %31
w: |||3.~Ein|
!<(! B,,3 A,,!<)! B,,2 G,,2 | F,,2 G,,2 A,,2!mf!!<(! B,,=B,, | C,2 D,2!<)! E,2!>(! F,2 | %34
w: Brief- lein schrieb sie,|schrieb sie mir, ich _|soll treu blei- ben|
 B,,2!>)!!p!!<(! B,A, (G,=F, | E,D,) | (D,2 C,2)!<)! B,,_A,, G,,2 |"^cresc." C,3 C, C,B,,!f! A,,2 | %38
w: ihr, d'rauf * schickt _|_ _|ich _ ihr _ ein||
 B,,2 C,2 D,2 B,,2 |!>(! F,2 C,2 F,!>)!!p!E, | D,C, | %41
w: |||
"^poco a poco cresc." B,,2 _A,,2 G,,=F,, E,,2 | B,,2 C,2 D,2 E,=E, | F,2!f! D,2 E,2!>(! C,2 | %44
w: |||
 B,,4!>)! z2 ||!f!!<(! F,E, | D,2 C,2 B,,2!<)! E,2 | D,2!ff! B,A, G,F, E,2 | %48
w: |||* * * * * kein'm|
!ff! D,2 _D,2 C,B,, A,,2 |!>(! (B,,2 C,2!>)! D,2) |!p! E,=E, |!<(! F,G, A,C B,_A, G,=E,!<)! | %52
w: ||||
 F,2 =B,,2 C,_B,,!f! =A,,2 |!<(! B,,2 B,G, F,E, D,E,!<)! | F,G, A,G, F,E, |!p!!<(! D,C, | %56
w: ||||
 B,,2!<)! C,2 D,2 C,2 | D,2!>(! E,2 F,D, E,=E,!>)! |!pp!!>(! F,2 =B,,2 C,_B,, =A,,2!>)! | %59
w: |||
!ppp! !fermata!B,,4 z2 |] %60
w: |

